assets/compare/physicalCard.svg

<svg width="28" height="29" viewBox="0 0 28 29" fill="none" xmlns="http://www.w3.org/2000/svg">
<path d="M3.49967 4.40021H24.4997C24.8091 4.40021 25.1058 4.52312 25.3246 4.74192C25.5434 4.96071 25.6663 5.25745 25.6663 5.56687V24.2335C25.6663 24.543 25.5434 24.8397 25.3246 25.0585C25.1058 25.2773 24.8091 25.4002 24.4997 25.4002H3.49967C3.19026 25.4002 2.89351 25.2773 2.67472 25.0585C2.45592 24.8397 2.33301 24.543 2.33301 24.2335V5.56687C2.33301 5.25745 2.45592 4.96071 2.67472 4.74192C2.89351 4.52312 3.19026 4.40021 3.49967 4.40021V4.40021ZM23.333 14.9002H4.66634V23.0669H23.333V14.9002ZM23.333 10.2335V6.73354H4.66634V10.2335H23.333Z" fill="#5BB5A2"/>
</svg>

<svg xmlns="http://www.w3.org/2000/svg" width="28" height="29" fill="none"><path fill="#5BB5A2" d="M3.5 4.4h21a1.167 1.167 0 0 1 1.166 1.167v18.666A1.167 1.167 0 0 1 24.5 25.4h-21a1.167 1.167 0 0 1-1.167-1.166V5.566A1.167 1.167 0 0 1 3.5 4.4Zm19.833 10.5H4.666v8.167h18.667V14.9Zm0-4.667v-3.5H4.666v3.5h18.667Z"/></svg>
